X:7
T:Bill Hart's Jig
R:jig
H:Also played in Ddor, #337
Z:id:hn-jig-7
M:6/8
K:Ador
~A3 ~e3|fed efe|~A3 ~e3|fed BdB|~A3 ~e3|fed efg|aba g2e|1 fed BdB:|2 fed B2A||
~a3 gag|fed efg|aba g2e|fed B2A|agf gfe|fed efg|aba g2e|fed B2A|
a2f g2e|fed efg|aba g2e|fed B2A|agf gfe|fed efg|aba g2e|fed BdB||
<end>
<start>
